; FANTOM Generated G-code
; ⚠️ Generated by AI - use at your own risk!

; Printer: Generic
; Layers: 100
; Layer Height: 0.2mm

G21 ; set units to millimeters
G90 ; use absolute coordinates
M82 ; use absolute distances for extrusion
G28 ; home all axes

; Start sequence
M104 S200 ; set extruder temp
M140 S60 ; set bed temp
M190 S60 ; wait for bed temp
M109 S200 ; wait for extruder temp

; Begin printing

; Layer 1
G0 Z-10.00 ; move to layer height
G0 X10 Y10 ; move to start position
G1 X30 Y10 E5 F1500 ; print perimeter
G1 X30 Y30 E10 F1500
G1 X10 Y30 E15 F1500
G1 X10 Y10 E20 F1500
; Fill pattern would go here

; Layer 2
G0 Z-9.80 ; move to layer height
G0 X10 Y10 ; move to start position
G1 X30 Y10 E5 F1500 ; print perimeter
G1 X30 Y30 E10 F1500
G1 X10 Y30 E15 F1500
G1 X10 Y10 E20 F1500
; Fill pattern would go here

; Layer 3
G0 Z-9.60 ; move to layer height
G0 X10 Y10 ; move to start position
G1 X30 Y10 E5 F1500 ; print perimeter
G1 X30 Y30 E10 F1500
G1 X10 Y30 E15 F1500
G1 X10 Y10 E20 F1500
; Fill pattern would go here

; End sequence
M104 S0 ; turn off extruder
M140 S0 ; turn off bed
G28 X0 ; home X axis
M84 ; disable motors